icon-themes/sifr_svg/cmd/lc_attributepagesize.svg

<svg viewBox="0 0 24 24" xmlns="http://www.w3.org/2000/svg"><path d="m3 2v11h2v-9h8v5h5v4h2v-5l-6-6zm-1 13v8h20v-8zm2 2h2v3h2v-3h3v3h2v-3h3v3h2v-3h2v4h-16z" fill="#555753"/></svg>

<svg xmlns="http://www.w3.org/2000/svg" viewBox="0 0 24 24">
  <path
     style="fill:#555753"
     d="M 3 2 L 3 13 L 5 13 L 5 4 L 13 4 L 13 9 L 18 9 L 18 13 L 20 13 L 20 8 L 14 2 L 3 2 z M 2 15 L 2 23 L 22 23 L 22 15 L 2 15 z M 4 17 L 6 17 L 6 20 L 8 20 L 8 17 L 11 17 L 11 20 L 13 20 L 13 17 L 16 17 L 16 20 L 18 20 L 18 17 L 20 17 L 20 21 L 4 21 L 4 17 z "
     />
</svg>
